assets/dude/That–Townes.svg

<svg width="361" height="116" viewBox="0 0 361 116" fill="none" xmlns="http://www.w3.org/2000/svg">
<path d="M78.9167 9.41996C78.7767 8.99996 78.4967 8.71996 77.7967 8.71996H70.0967C62.3967 8.71996 63.2367 0.459961 61.8367 0.459961C60.4367 0.459961 61.2767 8.71996 53.5767 8.71996H29.7767C22.0767 8.71996 22.9167 0.459961 21.5167 0.459961C20.1167 0.459961 20.9567 8.71996 13.2567 8.71996H5.55668C4.85668 8.71996 4.57668 8.99996 4.43668 9.41996C4.01668 10.54 0.0966797 38.54 0.0966797 42.74V54.08C0.0966797 54.78 0.656679 55.34 1.35668 55.34H8.91668C9.61668 55.34 10.1767 54.78 10.1767 54.08V52.82C10.1767 47.92 14.0967 44 18.9967 44H35.3767C36.0767 44 36.6367 44.56 36.6367 45.26V70.46C36.6367 71.16 36.0767 71.72 35.3767 71.72H21.5167C20.8167 71.72 20.2567 72.28 20.2567 72.98C20.2567 77.18 24.1767 105.18 24.5967 106.3C24.7367 106.72 25.0167 107 25.7167 107H33.4167C41.1167 107 40.2767 115.26 41.6767 115.26C43.0767 115.26 42.2367 107 49.9367 107H57.6367C58.3367 107 58.6167 106.72 58.7567 106.3C59.1767 105.18 63.0967 77.18 63.0967 72.98C63.0967 72.28 62.5367 71.72 61.8367 71.72H47.9767C47.2767 71.72 46.7167 71.16 46.7167 70.46V45.26C46.7167 44.56 47.2767 44 47.9767 44H64.3567C69.2567 44 73.1767 47.92 73.1767 52.82V54.08C73.1767 54.78 73.7367 55.34 74.4367 55.34H81.9967C82.6967 55.34 83.2567 54.78 83.2567 54.08V42.74C83.2567 38.54 79.3367 10.54 78.9167 9.41996Z" fill="#FF1C31"/>
<path d="M183.887 71.72H170.027C169.327 71.72 168.767 71.16 168.767 70.46V45.26C168.767 44.56 169.327 44 170.027 44H183.887C184.587 44 185.147 43.44 185.147 42.74C185.147 38.54 181.227 10.54 180.807 9.41996C180.667 8.99996 180.387 8.71996 179.687 8.71996H171.987C164.287 8.71996 165.127 0.459961 163.727 0.459961C162.327 0.459961 163.167 8.71996 155.467 8.71996H147.767C147.067 8.71996 146.787 8.99996 146.647 9.41996C146.227 10.54 142.307 38.54 142.307 42.74C142.307 43.44 142.867 44 143.567 44H157.427C158.127 44 158.687 44.56 158.687 45.26V52.82C158.687 53.52 158.127 54.08 157.427 54.08H117.107C116.407 54.08 115.847 53.52 115.847 52.82V45.26C115.847 44.56 116.407 44 117.107 44H130.967C131.667 44 132.227 43.44 132.227 42.74C132.227 38.54 128.307 10.54 127.887 9.41996C127.747 8.99996 127.467 8.71996 126.767 8.71996H119.067C111.367 8.71996 112.207 0.459961 110.807 0.459961C109.407 0.459961 110.247 8.71996 102.547 8.71996H94.8471C94.1471 8.71996 93.8671 8.99996 93.7271 9.41996C93.3071 10.54 89.3871 38.54 89.3871 42.74C89.3871 43.44 89.9471 44 90.6471 44H104.507C105.207 44 105.767 44.56 105.767 45.26V70.46C105.767 71.16 105.207 71.72 104.507 71.72H90.6471C89.9471 71.72 89.3871 72.28 89.3871 72.98C89.3871 77.18 93.3071 105.18 93.7271 106.3C93.8671 106.72 94.1471 107 94.8471 107H102.547C110.247 107 109.407 115.26 110.807 115.26C112.207 115.26 111.367 107 119.067 107H126.767C127.467 107 127.747 106.72 127.887 106.3C128.307 105.18 132.227 77.18 132.227 72.98C132.227 72.28 131.667 71.72 130.967 71.72H117.107C116.407 71.72 115.847 71.16 115.847 70.46V62.9C115.847 62.2 116.407 61.64 117.107 61.64H157.427C158.127 61.64 158.687 62.2 158.687 62.9V70.46C158.687 71.16 158.127 71.72 157.427 71.72H143.567C142.867 71.72 142.307 72.28 142.307 72.98C142.307 77.18 146.227 105.18 146.647 106.3C146.787 106.72 147.067 107 147.767 107H155.467C163.167 107 162.327 115.26 163.727 115.26C165.127 115.26 164.287 107 171.987 107H179.687C180.387 107 180.667 106.72 180.807 106.3C181.227 105.18 185.147 77.18 185.147 72.98C185.147 72.28 184.587 71.72 183.887 71.72Z" fill="#FF1C31"/>
<path d="M287.126 72.98C287.126 72.28 286.566 71.72 285.866 71.72H273.686C272.986 71.72 272.286 71.16 271.586 70.04L255.906 45.4C255.906 45.4 255.626 44.98 255.626 44.56C255.626 44.28 255.906 44 256.466 44H259.406C259.966 44 260.386 43.58 260.666 43.16V42.74C260.666 38.54 256.746 10.54 256.326 9.41996C256.186 8.99996 255.906 8.71996 255.206 8.71996H247.506C239.806 8.71996 240.646 0.459961 239.246 0.459961C237.846 0.459961 238.686 8.71996 230.986 8.71996H223.286C222.586 8.71996 222.306 8.99996 222.166 9.41996C221.746 10.54 217.826 38.54 217.826 42.74C217.826 43.44 218.386 44 219.086 44H223.706C224.266 44 224.546 44.28 224.546 44.56C224.546 44.98 224.266 45.4 224.266 45.4L208.586 70.04C207.886 71.16 207.466 71.72 206.766 71.72H192.626C191.926 71.72 191.366 72.28 191.366 72.98C191.366 77.18 195.286 105.18 195.706 106.3C195.846 106.72 196.126 107 196.826 107H204.526C212.226 107 211.386 115.26 212.786 115.26C214.186 115.26 213.346 107 221.046 107H228.746C229.446 107 229.726 106.72 229.866 106.3C230.286 105.18 234.206 77.18 234.206 72.98C234.206 72.28 233.646 71.72 232.946 71.72H219.646C219.086 71.72 218.666 71.72 218.666 71.44C218.666 71.02 218.946 70.6 218.946 70.6L222.446 65.14C223.146 64.02 223.566 63.46 224.266 63.46H251.426C252.126 63.46 252.546 64.02 253.246 65.14L256.606 70.32C256.606 70.32 256.886 70.74 256.886 71.16C256.886 71.44 256.606 71.72 256.046 71.72H245.546C244.846 71.72 244.286 72.28 244.286 72.98C244.286 77.18 248.206 105.18 248.626 106.3C248.766 106.72 249.046 107 249.746 107H257.446C265.146 107 264.306 115.26 265.706 115.26C267.106 115.26 266.266 107 273.966 107H281.666C282.366 107 282.646 106.72 282.786 106.3C283.206 105.18 287.126 77.18 287.126 72.98ZM245.966 55.9H229.726C229.166 55.9 228.886 55.62 228.886 55.34C228.886 54.92 229.166 54.5 229.166 54.5L234.486 45.68C235.186 44.56 235.606 44 236.306 44H239.246C239.946 44 240.366 44.56 241.066 45.68L246.526 54.5C246.526 54.5 246.806 54.92 246.806 55.34C246.806 55.62 246.526 55.9 245.966 55.9Z" fill="#FF1C31"/>
<path d="M356.592 9.41996C356.452 8.99996 356.172 8.71996 355.472 8.71996H347.772C340.072 8.71996 340.912 0.459961 339.512 0.459961C338.112 0.459961 338.952 8.71996 331.252 8.71996H307.452C299.752 8.71996 300.592 0.459961 299.192 0.459961C297.792 0.459961 298.632 8.71996 290.932 8.71996H283.232C282.532 8.71996 282.252 8.99996 282.112 9.41996C281.692 10.54 277.772 38.54 277.772 42.74V54.08C277.772 54.78 278.332 55.34 279.032 55.34H286.592C287.292 55.34 287.852 54.78 287.852 54.08V52.82C287.852 47.92 291.772 44 296.672 44H313.052C313.752 44 314.312 44.56 314.312 45.26V70.46C314.312 71.16 313.752 71.72 313.052 71.72H299.192C298.492 71.72 297.932 72.28 297.932 72.98C297.932 77.18 301.852 105.18 302.272 106.3C302.412 106.72 302.692 107 303.392 107H311.092C318.792 107 317.952 115.26 319.352 115.26C320.752 115.26 319.912 107 327.612 107H335.312C336.012 107 336.292 106.72 336.432 106.3C336.852 105.18 340.772 77.18 340.772 72.98C340.772 72.28 340.212 71.72 339.512 71.72H325.652C324.952 71.72 324.392 71.16 324.392 70.46V45.26C324.392 44.56 324.952 44 325.652 44H342.032C346.932 44 350.852 47.92 350.852 52.82V54.08C350.852 54.78 351.412 55.34 352.112 55.34H359.672C360.372 55.34 360.932 54.78 360.932 54.08V42.74C360.932 38.54 357.012 10.54 356.592 9.41996Z" fill="#FF1C31"/>
</svg>

<svg xmlns="http://www.w3.org/2000/svg" fill="none" viewBox="0 0 361 116"><path fill="#FF1C31" d="M78.917 9.42c-.14-.42-.42-.7-1.12-.7h-7.7c-7.7 0-6.86-8.26-8.26-8.26-1.4 0-.56 8.26-8.26 8.26h-23.8c-7.7 0-6.86-8.26-8.26-8.26-1.4 0-.56 8.26-8.26 8.26h-7.7c-.7 0-.98.28-1.12.7-.42 1.12-4.34 29.12-4.34 33.32v11.34c0 .7.56 1.26 1.26 1.26h7.56c.7 0 1.26-.56 1.26-1.26v-1.26c0-4.9 3.92-8.82 8.82-8.82h16.38c.7 0 1.26.56 1.26 1.26v25.2c0 .7-.56 1.26-1.26 1.26h-13.86c-.7 0-1.26.56-1.26 1.26 0 4.2 3.92 32.2 4.34 33.32.14.42.42.7 1.12.7h7.7c7.7 0 6.86 8.26 8.26 8.26 1.4 0 .56-8.26 8.26-8.26h7.7c.7 0 .98-.28 1.12-.7.42-1.12 4.34-29.12 4.34-33.32 0-.7-.56-1.26-1.26-1.26h-13.86c-.7 0-1.26-.56-1.26-1.26v-25.2c0-.7.56-1.26 1.26-1.26h16.38c4.9 0 8.82 3.92 8.82 8.82v1.26c0 .7.56 1.26 1.26 1.26h7.56c.7 0 1.26-.56 1.26-1.26V42.74c0-4.2-3.92-32.2-4.34-33.32zM183.887 71.72h-13.86c-.7 0-1.26-.56-1.26-1.26v-25.2c0-.7.56-1.26 1.26-1.26h13.86c.7 0 1.26-.56 1.26-1.26 0-4.2-3.92-32.2-4.34-33.32-.14-.42-.42-.7-1.12-.7h-7.7c-7.7 0-6.86-8.26-8.26-8.26-1.4 0-.56 8.26-8.26 8.26h-7.7c-.7 0-.98.28-1.12.7-.42 1.12-4.34 29.12-4.34 33.32 0 .7.56 1.26 1.26 1.26h13.86c.7 0 1.26.56 1.26 1.26v7.56c0 .7-.56 1.26-1.26 1.26h-40.32c-.7 0-1.26-.56-1.26-1.26v-7.56c0-.7.56-1.26 1.26-1.26h13.86c.7 0 1.26-.56 1.26-1.26 0-4.2-3.92-32.2-4.34-33.32-.14-.42-.42-.7-1.12-.7h-7.7c-7.7 0-6.86-8.26-8.26-8.26-1.4 0-.56 8.26-8.26 8.26h-7.7c-.7 0-.98.28-1.12.7-.42 1.12-4.34 29.12-4.34 33.32 0 .7.56 1.26 1.26 1.26h13.86c.7 0 1.26.56 1.26 1.26v25.2c0 .7-.56 1.26-1.26 1.26h-13.86c-.7 0-1.26.56-1.26 1.26 0 4.2 3.92 32.2 4.34 33.32.14.42.42.7 1.12.7h7.7c7.7 0 6.86 8.26 8.26 8.26 1.4 0 .56-8.26 8.26-8.26h7.7c.7 0 .98-.28 1.12-.7.42-1.12 4.34-29.12 4.34-33.32 0-.7-.56-1.26-1.26-1.26h-13.86c-.7 0-1.26-.56-1.26-1.26V62.9c0-.7.56-1.26 1.26-1.26h40.32c.7 0 1.26.56 1.26 1.26v7.56c0 .7-.56 1.26-1.26 1.26h-13.86c-.7 0-1.26.56-1.26 1.26 0 4.2 3.92 32.2 4.34 33.32.14.42.42.7 1.12.7h7.7c7.7 0 6.86 8.26 8.26 8.26 1.4 0 .56-8.26 8.26-8.26h7.7c.7 0 .98-.28 1.12-.7.42-1.12 4.34-29.12 4.34-33.32 0-.7-.56-1.26-1.26-1.26zM287.126 72.98c0-.7-.56-1.26-1.26-1.26h-12.18c-.7 0-1.4-.56-2.1-1.68l-15.68-24.64s-.28-.42-.28-.84c0-.28.28-.56.84-.56h2.94c.56 0 .98-.42 1.26-.84v-.42c0-4.2-3.92-32.2-4.34-33.32-.14-.42-.42-.7-1.12-.7h-7.7c-7.7 0-6.86-8.26-8.26-8.26-1.4 0-.56 8.26-8.26 8.26h-7.7c-.7 0-.98.28-1.12.7-.42 1.12-4.34 29.12-4.34 33.32 0 .7.56 1.26 1.26 1.26h4.62c.56 0 .84.28.84.56 0 .42-.28.84-.28.84l-15.68 24.64c-.7 1.12-1.12 1.68-1.82 1.68h-14.14c-.7 0-1.26.56-1.26 1.26 0 4.2 3.92 32.2 4.34 33.32.14.42.42.7 1.12.7h7.7c7.7 0 6.86 8.26 8.26 8.26 1.4 0 .56-8.26 8.26-8.26h7.7c.7 0 .98-.28 1.12-.7.42-1.12 4.34-29.12 4.34-33.32 0-.7-.56-1.26-1.26-1.26h-13.3c-.56 0-.98 0-.98-.28 0-.42.28-.84.28-.84l3.5-5.46c.7-1.12 1.12-1.68 1.82-1.68h27.16c.7 0 1.12.56 1.82 1.68l3.36 5.18s.28.42.28.84c0 .28-.28.56-.84.56h-10.5c-.7 0-1.26.56-1.26 1.26 0 4.2 3.92 32.2 4.34 33.32.14.42.42.7 1.12.7h7.7c7.7 0 6.86 8.26 8.26 8.26 1.4 0 .56-8.26 8.26-8.26h7.7c.7 0 .98-.28 1.12-.7.42-1.12 4.34-29.12 4.34-33.32zm-41.16-17.08h-16.24c-.56 0-.84-.28-.84-.56 0-.42.28-.84.28-.84l5.32-8.82c.7-1.12 1.12-1.68 1.82-1.68h2.94c.7 0 1.12.56 1.82 1.68l5.46 8.82s.28.42.28.84c0 .28-.28.56-.84.56z"/><path fill="#FF1C31" d="M356.592 9.42c-.14-.42-.42-.7-1.12-.7h-7.7c-7.7 0-6.86-8.26-8.26-8.26-1.4 0-.56 8.26-8.26 8.26h-23.8c-7.7 0-6.86-8.26-8.26-8.26-1.4 0-.56 8.26-8.26 8.26h-7.7c-.7 0-.98.28-1.12.7-.42 1.12-4.34 29.12-4.34 33.32v11.34c0 .7.56 1.26 1.26 1.26h7.56c.7 0 1.26-.56 1.26-1.26v-1.26c0-4.9 3.92-8.82 8.82-8.82h16.38c.7 0 1.26.56 1.26 1.26v25.2c0 .7-.56 1.26-1.26 1.26h-13.86c-.7 0-1.26.56-1.26 1.26 0 4.2 3.92 32.2 4.34 33.32.14.42.42.7 1.12.7h7.7c7.7 0 6.86 8.26 8.26 8.26 1.4 0 .56-8.26 8.26-8.26h7.7c.7 0 .98-.28 1.12-.7.42-1.12 4.34-29.12 4.34-33.32 0-.7-.56-1.26-1.26-1.26h-13.86c-.7 0-1.26-.56-1.26-1.26v-25.2c0-.7.56-1.26 1.26-1.26h16.38c4.9 0 8.82 3.92 8.82 8.82v1.26c0 .7.56 1.26 1.26 1.26h7.56c.7 0 1.26-.56 1.26-1.26V42.74c0-4.2-3.92-32.2-4.34-33.32z"/></svg>
